svg/u1fa95.svg

<svg viewBox="0 0 128 128" xmlns="http://www.w3.org/2000/svg">
  <defs/>
  <path d="M99.88,12.81 L101.25,14.77 C101.7,15.42 101.49,16.58 101.04,16.97 C100.59,17.36 99.42,17.83 98.77,17.46 L96.65,16.26 C95.71,15.73 95.53,14.44 96.29,13.67 L97.35,12.59 C98.08,11.86 99.29,11.96 99.88,12.81 Z" fill="#B0BEC5"/>
  <path d="M109.44,5.06 L110.81,7.02 C111.26,7.67 111.07,8.64 110.67,9.22 C110.27,9.8 108.98,10.07 108.34,9.71 L106.22,8.51 C105.28,7.98 105.1,6.69 105.86,5.92 L106.92,4.84 C107.64,4.11 108.85,4.21 109.44,5.06 Z" fill="#B0BEC5"/>
  <path d="M98.85,30.8 C102.27,27.85 105.23,28.49 106.83,28.13 C108.76,27.7 110.18,27.13 111.46,25.61 C110.96,24.64 110.8,23.42 111.33,22.47 C112.05,21.18 113.73,20.83 115.21,20.83 C116.71,20.83 118.43,21.08 119.79,20.25 C121.27,19.35 121.56,17.41 121.69,15.82 L121.67,12.55 C121.67,12.55 117.89,10.56 116.68,10.69 L98.85,30.8 Z" fill="#784D30"/>
  <path d="M110.17,29.63 L108.8,27.67 C108.35,27.02 108.42,26.14 108.98,25.57 L109.29,25.26 C109.81,24.73 110.63,24.62 111.28,24.98 L113.4,26.18 C114.34,26.71 114.52,28 113.76,28.77 L112.7,29.85 C111.97,30.58 110.76,30.48 110.17,29.63 Z" fill="#B0BEC5"/>
  <path d="M120.16,22.3 L118.79,20.34 C118.34,19.69 118.41,18.81 118.97,18.24 L119.28,17.93 C119.8,17.4 120.62,17.29 121.27,17.65 L123.39,18.85 C124.33,19.38 124.51,20.67 123.75,21.44 L122.69,22.52 C121.96,23.25 120.75,23.15 120.16,22.3 Z" fill="#B0BEC5"/>
  <path d="M107.77,21.69 C94.52,35.37 80.75,48.78 67.76,62.6 C67.44,63.15 67.4,63.84 67.53,64.45 C67.71,65.31 68.15,66.11 68.28,66.99 C68.59,69.47 66.81,71.77 64.82,73.05 C64.63,73.23 64.62,73.42 64.72,73.66 C64.97,74.25 65.42,74.8 65.75,75.35 C72.36,86.53 72.37,101.32 64.06,111.62 C44.19,136.46 15.86,115.44 14.52,113.58 L47.45,70.79 L102.01,18.68 L107.77,21.69 Z" fill="#784D30"/>
  <path d="M120.12,8.74 C117.94,5.83 113.82,4.32 110.64,5.65 C109.76,6.02 108.94,6.61 108.5,7.45 C108.06,8.29 108.03,9.29 107.93,10.25 C107.8,11.51 107.65,12.97 106.66,13.71 C104.32,15.43 102.41,13.59 102.41,13.59 C102.41,13.59 100.38,13.95 99.16,16.43 C98.64,17.5 98.39,19.02 97.94,20.13 C97.78,20.55 97.3,21 97.3,21 L46.89,64.63 L54.66,71.54 L101.97,26.29 C101.97,26.29 101.97,26.29 101.97,26.29 C103.79,24.76 104.58,25.1 106.23,24.78 C108.21,24.4 110.01,23.34 111.29,21.82 C110.75,20.8 110.53,19.54 111.05,18.57 C111.75,17.27 113.48,16.95 115,17 C116.52,17.05 118.14,17.31 119.48,16.67 C120.82,16.03 121.61,14.55 121.65,13.03 C121.69,11.52 121.06,9.99 120.12,8.74 Z" fill="#C87D5E"/>
  <path d="M66.82,90.01 A31.47 31.47 0 1 1 3.88,90.01 A31.47 31.47 0 1 1 66.82,90.01 Z" fill="#C87D5E"/>
  <path d="M54.92,114.66 L58.72,111.08 L54.71,106.61 L50.97,110.25 Z" fill="#B0BEC5"/>
  <path d="M66.77,91.77 L62.11,91.34 L60.66,96.45 L66.11,96.96 Z" fill="#B0BEC5"/>
  <path d="M35.35,121.48 L40.57,120.99 L40.62,115 L35.39,115.55 Z" fill="#B0BEC5"/>
  <path d="M18.23,116.42 L22.81,119.06 L24.62,114.8 C23.24,114.13 21.36,113.19 19.96,112.42 L18.23,116.42 Z" fill="#B0BEC5"/>
  <path d="M65.12,79.78 L63.11,74.93 L58.78,76.25 L60.28,81.26 Z" fill="#B0BEC5"/>
  <path d="M33.6,116.5 C23.33,116.5 14.06,111.25 8.78,102.46 C0.57,88.79 5.02,71 18.69,62.79 C23.19,60.09 28.33,58.66 33.55,58.66 C43.82,58.66 53.09,63.91 58.37,72.7 C66.58,86.37 62.13,104.17 48.46,112.38 C43.96,115.08 38.82,116.5 33.6,116.5 Z" fill="#FFCC80"/>
  <path d="M33.55,57.79 L33.55,59.53 C43.51,59.53 52.51,64.62 57.62,73.15 C61.48,79.57 62.6,87.11 60.79,94.38 C58.97,101.65 54.44,107.78 48.01,111.63 C43.65,114.25 38.66,115.64 33.6,115.64 C23.64,115.64 14.64,110.55 9.52,102.02 C5.66,95.6 4.54,88.06 6.36,80.79 C8.18,73.52 12.71,67.39 19.14,63.54 C23.5,60.92 28.49,59.54 33.55,59.53 L33.55,57.79 M33.55,57.79 C28.33,57.79 23.05,59.16 18.25,62.04 C4.14,70.51 -0.43,88.81 8.03,102.91 C13.62,112.22 23.48,117.37 33.6,117.37 C38.82,117.37 44.1,116 48.9,113.12 C63.01,104.65 67.58,86.35 59.11,72.25 C53.53,62.94 43.66,57.79 33.55,57.79 L33.55,57.79 Z" fill="#B0BEC5"/>
  <path d="M57.96,86.31 A25.53 25.53 0 1 1 6.9,86.31 A25.53 25.53 0 1 1 57.96,86.31 Z" fill="#FEF6E0"/>
  <path d="M9.17,88.83 C8.89,84.45 10.14,78.5 14.5,72.55 C16.27,70.14 16.98,67.74 14.51,66.06 L13.55,65.41 C4.42,73.81 2.37,85.79 4.96,95.29 L6.55,94.87 C9.22,94.16 9.34,91.59 9.17,88.83 Z" fill="#B0BEC5"/>
  <path d="M23.988,87.733 L18.048,95.443 L17.652,95.137 L23.592,87.427 L23.988,87.733 Z" fill="#CFD8DC"/>
  <path d="M21.252,98.175 L28.162,91.905 L28.498,92.275 L21.588,98.545 L21.252,98.175 Z" fill="#CFD8DC"/>
  <path d="M20.184,96.782 L26.634,90.412 L26.986,90.768 L20.536,97.138 L20.184,96.782 Z" fill="#CFD8DC"/>
  <path d="M18.853,96.005 L25.113,88.915 L25.487,89.245 L19.227,96.335 L18.853,96.005 Z" fill="#CFD8DC"/>
  <path d="M15.18,109.22 L9.52,103.99 L10.82,99.91 L16.45,93.92 C16.82,93.49 17.47,93.46 17.88,93.86 L22.69,98.6 C23.09,98.99 23.07,99.64 22.66,100.02 L16.05,105.94 L15.18,109.22 Z" fill="#B0BEC5"/>
  <path d="M23.625,87.392 L100.983,19.237 L101.475,16.918 L101.965,17.022 L101.437,19.503 L23.955,87.768 Z" fill="#CFD8DC"/>
  <path d="M25.133,88.894 L102.632,19.654 L112.132,8.855 L112.508,9.185 L102.988,20.006 L25.467,89.266 Z" fill="#CFD8DC"/>
  <path d="M26.642,90.405 L103.494,20.635 L117.1,13.171 L117.34,13.609 L103.786,21.045 L26.978,90.775 Z" fill="#CFD8DC"/>
  <path d="M28.161,91.906 L104.51,21.811 L107.115,21.226 L107.225,21.714 L104.75,22.269 L28.499,92.274 Z" fill="#CFD8DC"/>
  <path d="M22.301,84.254 L32.401,94.304 L30.559,96.156 L20.459,86.106 L22.301,84.254 Z" fill="#784D30"/>
  <path d="M103.25,16.97 A1.53 1.53 0 1 1 100.19,16.97 A1.53 1.53 0 1 1 103.25,16.97 Z" fill="#B0BEC5"/>
  <path d="M108.7,21.47 A1.53 1.53 0 1 1 105.64,21.47 A1.53 1.53 0 1 1 108.7,21.47 Z" fill="#B0BEC5"/>
  <path d="M113.85,9.02 A1.53 1.53 0 1 1 110.79,9.02 A1.53 1.53 0 1 1 113.85,9.02 Z" fill="#B0BEC5"/>
  <path d="M118.75,13.39 A1.53 1.53 0 1 1 115.69,13.39 A1.53 1.53 0 1 1 118.75,13.39 Z" fill="#B0BEC5"/>
</svg>

<svg viewBox="0 0 128 128" xmlns="http://www.w3.org/2000/svg">
  <g>
    <path d="M99.88,12.81l1.37,1.96c0.45,0.65,0.24,1.81-0.21,2.2c-0.45,0.39-1.62,0.86-2.27,0.49l-2.12-1.2 c-0.94-0.53-1.12-1.82-0.36-2.59l1.06-1.08C98.08,11.86,99.29,11.96,99.88,12.81z" fill="#B0BEC5"/>
    <path d="M109.44,5.06l1.37,1.96c0.45,0.65,0.26,1.62-0.14,2.2c-0.4,0.58-1.69,0.85-2.33,0.49l-2.12-1.2 c-0.94-0.53-1.12-1.82-0.36-2.59l1.06-1.08C107.64,4.11,108.85,4.21,109.44,5.06z" fill="#B0BEC5"/>
    <path d="M98.85,30.8c3.42-2.95,6.38-2.31,7.98-2.67c1.93-0.43,3.35-1,4.63-2.52 c-0.5-0.97-0.66-2.19-0.13-3.14c0.72-1.29,2.4-1.64,3.88-1.64c1.5,0,3.22,0.25,4.58-0.58c1.48-0.9,1.77-2.84,1.9-4.43l-0.02-3.27 c0,0-3.78-1.99-4.99-1.86L98.85,30.8z" fill="#784D30"/>
    <path d="M110.17,29.63l-1.37-1.96c-0.45-0.65-0.38-1.53,0.18-2.1l0.31-0.31c0.52-0.53,1.34-0.64,1.99-0.28 l2.12,1.2c0.94,0.53,1.12,1.82,0.36,2.59l-1.06,1.08C111.97,30.58,110.76,30.48,110.17,29.63z" fill="#B0BEC5"/>
    <path d="M120.16,22.3l-1.37-1.96c-0.45-0.65-0.38-1.53,0.18-2.1l0.31-0.31c0.52-0.53,1.34-0.64,1.99-0.28 l2.12,1.2c0.94,0.53,1.12,1.82,0.36,2.59l-1.06,1.08C121.96,23.25,120.75,23.15,120.16,22.3z" fill="#B0BEC5"/>
    <path d="M107.77,21.69C94.52,35.37,80.75,48.78,67.76,62.6c-0.32,0.55-0.36,1.24-0.23,1.85 c0.18,0.86,0.62,1.66,0.75,2.54c0.31,2.48-1.47,4.78-3.46,6.06c-0.19,0.18-0.2,0.37-0.1,0.61c0.25,0.59,0.7,1.14,1.03,1.69 c6.61,11.18,6.62,25.97-1.69,36.27c-19.87,24.84-48.2,3.82-49.54,1.96l32.93-42.79l54.56-52.11L107.77,21.69z" fill="#784D30"/>
    <path d="M120.12,8.74c-2.18-2.91-6.3-4.42-9.48-3.09c-0.88,0.37-1.7,0.96-2.14,1.8 c-0.44,0.84-0.47,1.84-0.57,2.8c-0.13,1.26-0.28,2.72-1.27,3.46c-2.34,1.72-4.25-0.12-4.25-0.12s-2.03,0.36-3.25,2.84 c-0.52,1.07-0.77,2.59-1.22,3.7C97.78,20.55,97.3,21,97.3,21L46.89,64.63l7.77,6.91l47.31-45.25c0,0,0,0,0,0 c1.82-1.53,2.61-1.19,4.26-1.51c1.98-0.38,3.78-1.44,5.06-2.96c-0.54-1.02-0.76-2.28-0.24-3.25c0.7-1.3,2.43-1.62,3.95-1.57 c1.52,0.05,3.14,0.31,4.48-0.33c1.34-0.64,2.13-2.12,2.17-3.64C121.69,11.52,121.06,9.99,120.12,8.74z" fill="#C87D5E"/>
    <line fill="none" x1="56.36" x2="9.66" y1="65.09" y2="110.07"/>
    <circle cx="35.35" cy="90.01" r="31.47" fill="#C87D5E"/>
    <polygon points="54.92,114.66 58.72,111.08 54.71,106.61 50.97,110.25 " fill="#B0BEC5"/>
    <polygon points="66.77,91.77 62.11,91.34 60.66,96.45 66.11,96.96 " fill="#B0BEC5"/>
    <polygon points="35.35,121.48 40.57,120.99 40.62,115 35.39,115.55 " fill="#B0BEC5"/>
    <path d="M18.23,116.42l4.58,2.64l1.81-4.26c-1.38-0.67-3.26-1.61-4.66-2.38L18.23,116.42z" fill="#B0BEC5"/>
    <polygon points="65.12,79.78 63.11,74.93 58.78,76.25 60.28,81.26 " fill="#B0BEC5"/>
    <g>
      <path d="M33.6,116.5c-10.27,0-19.54-5.25-24.82-14.04C0.57,88.79,5.02,71,18.69,62.79 c4.5-2.7,9.64-4.13,14.86-4.13c10.27,0,19.54,5.25,24.82,14.04c8.21,13.67,3.76,31.47-9.91,39.68 C43.96,115.08,38.82,116.5,33.6,116.5z" fill="#FFCC80"/>
      <path d="M33.55,57.79v1.74c9.96,0,18.96,5.09,24.07,13.62c3.86,6.42,4.98,13.96,3.17,21.23 c-1.82,7.27-6.35,13.4-12.78,17.25c-4.36,2.62-9.35,4.01-14.41,4.01c-9.96,0-18.96-5.09-24.08-13.62 c-3.86-6.42-4.98-13.96-3.16-21.23c1.82-7.27,6.35-13.4,12.78-17.25c4.36-2.62,9.35-4,14.41-4.01L33.55,57.79 M33.55,57.79 c-5.22,0-10.5,1.37-15.3,4.25C4.14,70.51-0.43,88.81,8.03,102.91c5.59,9.31,15.45,14.46,25.57,14.46c5.22,0,10.5-1.37,15.3-4.25 c14.11-8.47,18.68-26.77,10.21-40.87C53.53,62.94,43.66,57.79,33.55,57.79L33.55,57.79z" fill="#B0BEC5"/>
    </g>
    <circle cx="32.43" cy="86.31" r="25.53" fill="#FEF6E0"/>
    <path d="M9.17,88.83c-0.28-4.38,0.97-10.33,5.33-16.28c1.77-2.41,2.48-4.81,0.01-6.49l-0.96-0.65 c-9.13,8.4-11.18,20.38-8.59,29.88l1.59-0.42C9.22,94.16,9.34,91.59,9.17,88.83z" fill="#B0BEC5"/>
    <line fill="none" stroke="#CFD8DC" stroke-width="0.5" stroke-miterlimit="10" x1="23.79" x2="17.85" y1="87.58" y2="95.29"/>
    <line fill="none" stroke="#CFD8DC" stroke-width="0.5" stroke-miterlimit="10" x1="21.42" x2="28.33" y1="98.36" y2="92.09"/>
    <line fill="none" stroke="#CFD8DC" stroke-width="0.5" stroke-miterlimit="10" x1="20.36" x2="26.81" y1="96.96" y2="90.59"/>
    <line fill="none" stroke="#CFD8DC" stroke-width="0.5" stroke-miterlimit="10" x1="19.04" x2="25.3" y1="96.17" y2="89.08"/>
    <path d="M15.18,109.22l-5.66-5.23l1.3-4.08l5.63-5.99c0.37-0.43,1.02-0.46,1.43-0.06l4.81,4.74 c0.4,0.39,0.38,1.04-0.03,1.42l-6.61,5.92L15.18,109.22z" fill="#B0BEC5"/>
    <g>
      <polyline points="23.79,87.58 101.21,19.37 101.72,16.97 " fill="none" stroke="#CFD8DC" stroke-width="0.5" stroke-miterlimit="10"/>
      <polyline points="25.3,89.08 102.81,19.83 112.32,9.02 " fill="none" stroke="#CFD8DC" stroke-width="0.5" stroke-miterlimit="10"/>
      <polyline points="26.81,90.59 103.64,20.84 117.22,13.39 " fill="none" stroke="#CFD8DC" stroke-width="0.5" stroke-miterlimit="10"/>
      <polyline points="28.33,92.09 104.63,22.04 107.17,21.47 " fill="none" stroke="#CFD8DC" stroke-width="0.5" stroke-miterlimit="10"/>
    </g>
    <line fill="none" stroke="#784D30" stroke-width="2.6114" stroke-miterlimit="10" x1="21.38" x2="31.48" y1="85.18" y2="95.23"/>
    <circle cx="101.72" cy="16.97" r="1.53" fill="#B0BEC5"/>
    <circle cx="107.17" cy="21.47" r="1.53" fill="#B0BEC5"/>
    <circle cx="112.32" cy="9.02" r="1.53" fill="#B0BEC5"/>
    <circle cx="117.22" cy="13.39" r="1.53" fill="#B0BEC5"/>
  </g>
</svg>
